202404-ahaslides-april/assets/images/1b.svg

<svg width="100" height="100" viewBox="0 0 100 100" fill="none" xmlns="http://www.w3.org/2000/svg">
<path d="M33.9 18.9126L24 28.951L20.1 24.9965C18.9 23.7797 17.1 23.7797 15.9 24.9965C14.7 26.2133 14.7 28.0385 15.9 29.2552L21.9 35.3392C22.5 35.9476 23.1 36.2517 24 36.2517C24.9 36.2517 25.5 35.9476 26.1 35.3392L38.1 23.1713C39.3 21.9545 39.3 20.1294 38.1 18.9126C36.9 17.6958 35.1 17.6958 33.9 18.9126Z" fill="#2F68DC"/>
<path d="M33.9 40.0035L24 50.042L20.1 46.0874C18.9 44.8706 17.1 44.8706 15.9 46.0874C14.7 47.3042 14.7 49.1294 15.9 50.3462L21.9 56.4301C22.5 57.0385 23.1 57.3427 24 57.3427C24.9 57.3427 25.5 57.0385 26.1 56.4301L38.1 44.2622C39.3 43.0455 39.3 41.2203 38.1 40.0035C36.9 38.7867 35.1 38.7867 33.9 40.0035Z" fill="#2F68DC"/>
<path d="M33.375 69.4091C33.375 73.0492 30.4369 76 26.8125 76C23.1881 76 20.25 73.0492 20.25 69.4091C20.25 65.769 23.1881 62.8182 26.8125 62.8182C30.4369 62.8182 33.375 65.769 33.375 69.4091Z" fill="#2F68DC"/>
<path d="M38.625 69.4091C38.625 67.2251 40.3879 65.4545 42.5625 65.4545H74.0625C76.2371 65.4545 78 67.2251 78 69.4091C78 71.5931 76.2371 73.3636 74.0625 73.3636H42.5625C40.3879 73.3636 38.625 71.5931 38.625 69.4091Z" fill="#2F68DC"/>
<path d="M46.5 29.8636C46.5 27.6796 48.2629 25.9091 50.4375 25.9091H74.0625C76.2371 25.9091 78 27.6796 78 29.8636C78 32.0477 76.2371 33.8182 74.0625 33.8182H50.4375C48.2629 33.8182 46.5 32.0477 46.5 29.8636Z" fill="#2F68DC"/>
<path d="M46.5 49.6364C46.5 47.4523 48.2629 45.6818 50.4375 45.6818H74.0625C76.2371 45.6818 78 47.4523 78 49.6364C78 51.8204 76.2371 53.5909 74.0625 53.5909H50.4375C48.2629 53.5909 46.5 51.8204 46.5 49.6364Z" fill="#2F68DC"/>
</svg>

<svg xmlns="http://www.w3.org/2000/svg" width="100" height="100" fill="none" viewBox="0 0 100 100">
  <path fill="#2F68DC" d="M33.9 18.913 24 28.95l-3.9-3.954c-1.2-1.217-3-1.217-4.2 0-1.2 1.216-1.2 3.041 0 4.258l6 6.084c.6.609 1.2.913 2.1.913.9 0 1.5-.304 2.1-.913l12-12.168c1.2-1.216 1.2-3.042 0-4.258-1.2-1.217-3-1.217-4.2 0Zm0 21.091L24 50.041l-3.9-3.955c-1.2-1.216-3-1.216-4.2 0-1.2 1.217-1.2 3.042 0 4.26l6 6.083c.6.608 1.2.913 2.1.913.9 0 1.5-.305 2.1-.913l12-12.168c1.2-1.217 1.2-3.042 0-4.258-1.2-1.217-3-1.217-4.2 0Zm-.525 29.406c0 3.64-2.938 6.59-6.563 6.59-3.624 0-6.562-2.95-6.562-6.59 0-3.641 2.938-6.592 6.563-6.592 3.624 0 6.562 2.951 6.562 6.591Zm5.25 0a3.946 3.946 0 0 1 3.938-3.956h31.5A3.946 3.946 0 0 1 78 69.41a3.946 3.946 0 0 1-3.938 3.955h-31.5a3.946 3.946 0 0 1-3.937-3.955ZM46.5 29.864a3.946 3.946 0 0 1 3.938-3.955h23.624A3.946 3.946 0 0 1 78 29.864a3.946 3.946 0 0 1-3.938 3.954H50.439a3.946 3.946 0 0 1-3.938-3.954Zm0 19.772a3.946 3.946 0 0 1 3.938-3.954h23.624A3.946 3.946 0 0 1 78 49.636a3.946 3.946 0 0 1-3.938 3.955H50.439a3.946 3.946 0 0 1-3.938-3.955Z"/>
</svg>
